svg/switch.svg

<svg width="24" height="24" viewBox="0 0 24 24" fill="none" xmlns="http://www.w3.org/2000/svg">
<path d="M14.2929 2.29289C14.6834 1.90237 15.3166 1.90237 15.7071 2.29289L19.7071 6.29289C20.0976 6.68342 20.0976 7.31658 19.7071 7.70711L15.7071 11.7071C15.3166 12.0976 14.6834 12.0976 14.2929 11.7071C13.9024 11.3166 13.9024 10.6834 14.2929 10.2929L16.5858 8L5 8C4.44772 8 4 7.55228 4 7C4 6.44771 4.44772 6 5 6L16.5858 6L14.2929 3.70711C13.9024 3.31658 13.9024 2.68342 14.2929 2.29289ZM9.70711 12.2929C10.0976 12.6834 10.0976 13.3166 9.70711 13.7071L7.41421 16H19C19.5523 16 20 16.4477 20 17C20 17.5523 19.5523 18 19 18H7.41421L9.70711 20.2929C10.0976 20.6834 10.0976 21.3166 9.70711 21.7071C9.31658 22.0976 8.68342 22.0976 8.29289 21.7071L4.29289 17.7071C4.10536 17.5196 4 17.2652 4 17C4 16.7348 4.10536 16.4804 4.29289 16.2929L8.29289 12.2929C8.68342 11.9024 9.31658 11.9024 9.70711 12.2929Z" fill="#0D0D0D"/>
</svg>

<svg width="24" height="24" fill="none" xmlns="http://www.w3.org/2000/svg"><path d="M14.293 2.293a1 1 0 011.414 0l4 4a1 1 0 010 1.414l-4 4a1 1 0 01-1.414-1.414L16.586 8H5a1 1 0 010-2h11.586l-2.293-2.293a1 1 0 010-1.414zm-4.586 10a1 1 0 010 1.414L7.414 16H19a1 1 0 110 2H7.414l2.293 2.293a1 1 0 01-1.414 1.414l-4-4a1 1 0 010-1.414l4-4a1 1 0 011.414 0z" fill="#0D0D0D"/></svg>
